X:1349
T:The Star of Kilkenny
R:Reel
N:Collected by McNamara
B:O'Neill's 1349
Z:Transcribed by Trish O'Neil
M:C|
L:1/8
K:Em
d|BcAFG2GA|B2Ac Beed|BcAFG2ef|gefd Beed|
BcAFG2GA|B2Ac Beed|BcAFG2ef|agefd"H"e2||
ef|Tgfga gdBd|gefd Beef|Tgfga bgaf|gefd Beef|
Tgfga gdBd|gefd Beef|gfga bgaf|gefd B"D.C."e e|]
